!!!OTL: Siebenbuergen, Land des Segens Land der Fuelle und der Kraft
!!!ARE: Europa, Suedosteuropa, Rumaenien, Siebenbuergen
!!!SCT: D0197
!!!YEM: Copyright 1995, estate of Helmut Schaffrath.
**kern
*ICvox
*Ivox
*M3/4
*k[f#]
*G:
{8b
8g
=1
4dd
4dd
8a
8b
=2
4g
4d}
{8g
8a
=3
4.b
16cc
16b
8a
8g
=4
2a}
{8d
8d
=5
4.g
8b
8dd
8ee
=6
8dd
8cc
4b}
{8dd
8ee
=7
4.cc
8a
8dd
8cc
=8
8b
8cc
4dd}
{8g
8a
=9
4b
4b
8b
8b
=10
2b}
{16g
16a
16b
16cc
=11
4dd
4dd
8a
8b
=12
2g}
==
!!!AGN: Heimat - Lied
!!!ONB: ESAC (Essen Associative Code) Database: DVA
!!!AMT: simple triple
!!!AIN: vox
!!!EED: Helmut Schaffrath
!!!EEV: 1.0
*-
